file/fox-news.svg

<svg clip-rule="evenodd" fill-rule="evenodd" stroke-linejoin="round" stroke-miterlimit="1.41421" viewBox="0 0 560 400" xmlns="http://www.w3.org/2000/svg"><g fill-rule="nonzero" transform="matrix(.218623 0 0 .218623 145 65)"><path d="m0 0h1235v1001.7h-1235z" fill="#036"/><path d="m0 1015.4h1235v219.6h-1235z" fill="#c20017"/><g fill="#fff"><path d="m1235 717h-2.3c-13.7-33.6-29.2-66.4-46.5-98.3h15.2c12 23 23.2 46.3 33.6 70zm-1235-579.8c60.8-20.4 123.3-34.8 186.9-43.1l18.1-94.1h146.7l-32.9 85.4c39.5-.1 78.9 2.2 118.1 6.9l45.7-92.3h161.2l-76.8 116.6c101.9 26.4 198.9 68.8 287.3 125.7 17.6 11.3 34.7 23.2 51.3 35.5h-23.3c-97.7-68.8-207.2-119.4-323.1-149.1l-93.9 145.7h-67.4v99.2l-166.3 271.3h-53.2v90.7l-170.4 266.1h-5.4l428.1-896.6c-38.7-4.5-77.7-6.6-116.6-6.3l-312.9 902.9h-1.2m0-16.7 183.9-876.7c-62.3 8.7-123.6 23.5-183.1 44h-.8"/><path d="m507.7 503.3h90.2v-84.3h-90.2v-40.2h109.8l-6-84.5h-195.6v309.4h91.8zm381.6 99.5h98.7l45-75.9 46.1 76h101l-97.4-160.3 87.7-147.8h-100l-37.7 64.2-39.1-64.4h-101.7l90.3 148.7zm-114.8 3.4c87.3 1.2 159.1-68.4 160.6-155.7-3.7-88.8-78.6-157.8-167.5-154.2-83.7 3.5-150.7 70.5-154.2 154.2 1.4 87.4 73.4 157.1 160.8 155.7zm-28.4-223.6c.1-15.3 12.2-27.7 27.4-28.4 15.7.3 28.4 12.8 29 28.4v131.3c-1.1 15.6-14.6 27.3-30.2 26.2-14.1-1-25.2-12.2-26.2-26.2zm-217.5 452.1h93.4v-61.9h-93.4v-42.1h113.8v-67h-185.9v289.3h187.3v-69.6h-115.2zm402-171-35.8 165.6-35-165.6h-61.8l-33.3 167.3-34.7-167.3h-73.7l66.9 289.3h67.2l32.9-165.8 33.9 165.8h65.8l67.2-289.3zm244 130.7c-19.2-17.7-41.2-22.4-65.9-29.4-29.2-8.2-45.3-9.1-45.3-26.1 1.2-12.6 12.4-21.8 25-20.6h.2c18.6-1.5 35.6 10.8 39.9 29l63.1-21c-11.7-44-52.5-73.9-98-71.9-65.9 0-106.2 40.5-106.2 95 0 47.1 27.4 70.3 82.3 86.7 32.8 9.9 50.2 9.1 50.2 30.2 0 11.1-10.3 19.8-27.4 19.8-22.6 2.6-43.2-12.9-47.1-35.3l-69.2 15.2c11.8 54.9 52.7 87.5 115.4 87.5 31 .8 60.9-11.5 82.3-33.9 15.8-17.4 24.5-40.1 24.3-63.7 1.3-23-7.4-45.4-23.7-61.6h.1zm-807.9 14.5-86.2-143.9h-83.6v288.2h73.4v-168.4l98.4 168h69.6v-288.2h-71.4z"/><path d="m118.7 1114.7c7.9-1.4 15.7 3.1 18.5 10.6h41.2c-2.6-19.5-24.7-31.1-59.1-31.1-39.4.5-64.4 17.4-64.4 44.9 0 25 24.6 41.2 61.9 41.2 34.4 0 56.9-11.9 61.1-32.2h-40.6c-2.3 7.8-8.8 11.7-19.3 11.7-13.7 0-21.1-7.3-21.1-21.8s7.7-23.3 21.8-23.3zm400.7 47.2v-30.3c1.6-9.4-1.5-19-8.2-25.7-13.8-8.3-29.9-12-46-10.4-35.5 0-54.9 8.6-58.9 27.4h37.7c1.6-5.9 8.5-9.1 20.3-9.1s16.2 2.5 16.2 7.1v1.9c0 6.2-15.5 4.9-44.5 9.3-22.1 3.3-33.2 11.5-33.2 24.8s14.5 23.1 39.1 23.1c14 .4 27.9-3.4 39.8-10.8.4 2.8 1.1 5.6 2.1 8.2h41.2v-3c-3.6-1.4-5.5-5.6-5.5-12.8zm-39.1-12.9c0 8.5-9.9 13.7-23.7 13.7-9.2 0-15.1-4-15.1-9.5s4.3-7.3 13.7-8.9c8.5-.8 16.9-2.3 25.1-4.5zm184.7-53.4c-13.9-1.2-27.6 3.5-37.9 12.9v-10.7h-39.8v80h41.2v-43c0-13.7 5.9-19.3 20.7-19.3s17.2 7.1 17.2 21.8v40.2h41.2v-52.3c-.5-20.2-11.8-29.6-42.1-29.6zm-356 1.1c-13.9-1-27.7 3.5-38.4 12.5v-38.8h-41.2v108.4h41.2v-42.7c0-13.7 5.9-19.3 20.7-19.3s17.2 7.1 17.2 21.8v40.2h41.2v-54.9c0-17.8-14.1-27.2-40.3-27.2zm548.9-1.1c-13.9-1.2-27.6 3.5-37.9 12.9v-10.7h-39.1v80h41.2v-43c0-13.7 5.9-19.3 20.7-19.3s17.2 7.1 17.2 21.8v40.2h41.2v-52.3c-.5-20.2-11.9-29.6-42.3-29.6zm160-.8c-38.1 0-62.8 16.3-62.8 43.1s25.2 42.3 63.8 42.3c32 0 54.9-10.2 61.8-27.4h-39.4c-2.9 5.8-9.9 8.8-21 8.8-14.5 0-22.4-6-22.4-17.3h84.5c.1-1.6.1-3.1 0-4.7.3-28-24.2-44.7-63.5-44.7zm-22.1 34.1c1.6-10.7 10.2-16.5 23.3-16.5s23.1 6 23.3 16.5zm143.1-58.6v108.4h41.2v-108.4z"/></g></g></svg>

<?xml version="1.0" encoding="UTF-8" standalone="no"?>
<!DOCTYPE svg PUBLIC "-//W3C//DTD SVG 1.1//EN" "http://www.w3.org/Graphics/SVG/1.1/DTD/svg11.dtd">
<svg width="100%" height="100%" viewBox="0 0 560 400" version="1.1" xmlns="http://www.w3.org/2000/svg" xmlns:xlink="http://www.w3.org/1999/xlink" xml:space="preserve" xmlns:serif="http://www.serif.com/" style="fill-rule:evenodd;clip-rule:evenodd;stroke-linejoin:round;stroke-miterlimit:1.41421;">
    <g transform="matrix(0.218623,0,0,0.218623,145,65)">
        <rect id="bg-top" x="0" y="0" width="1235" height="1001.7" style="fill:rgb(0,51,102);fill-rule:nonzero;"/>
        <rect id="bg-bottom" x="0" y="1015.4" width="1235" height="219.6" style="fill:rgb(194,0,23);fill-rule:nonzero;"/>
        <path id="kliegs" d="M1235,717L1232.7,717C1219,683.4 1203.5,650.6 1186.2,618.7L1201.4,618.7C1213.4,641.7 1224.6,665 1235,688.7L1235,717ZM0,137.2C60.8,116.8 123.3,102.4 186.9,94.1L205,0L351.7,0L318.8,85.4C358.3,85.3 397.7,87.6 436.9,92.3L482.6,0L643.8,0L567,116.6C668.9,143 765.9,185.4 854.3,242.3C871.9,253.6 889,265.5 905.6,277.8L882.3,277.8C784.6,209 675.1,158.4 559.2,128.7L465.3,274.4L397.9,274.4L397.9,373.6L231.6,644.9L178.4,644.9L178.4,735.6L8,1001.7L2.6,1001.7L430.7,105.1C392,100.6 353,98.5 314.1,98.8L1.2,1001.7L0,1001.7M0,985L183.9,108.3C121.6,117 60.3,131.8 0.8,152.3L0,152.3" style="fill:white;fill-rule:nonzero;"/>
        <path id="fox-news" d="M507.7,503.3L597.9,503.3L597.9,419L507.7,419L507.7,378.8L617.5,378.8L611.5,294.3L415.9,294.3L415.9,603.7L507.7,603.7L507.7,503.3ZM889.3,602.8L988,602.8L1033,526.9L1079.1,602.9L1180.1,602.9L1082.7,442.6L1170.4,294.8L1070.4,294.8L1032.7,359L993.6,294.6L891.9,294.6L982.2,443.3L889.3,602.8ZM774.5,606.2C861.8,607.4 933.6,537.8 935.1,450.5C931.4,361.7 856.5,292.7 767.6,296.3C683.9,299.8 616.9,366.8 613.4,450.5C614.8,537.9 686.8,607.6 774.2,606.2L774.5,606.2ZM746.1,382.6C746.2,367.3 758.3,354.9 773.5,354.2C789.2,354.5 801.9,367 802.5,382.6L802.5,513.9C801.4,529.5 787.9,541.2 772.3,540.1C758.2,539.1 747.1,527.9 746.1,513.9L746.1,382.6ZM528.6,834.7L622,834.7L622,772.8L528.6,772.8L528.6,730.7L642.4,730.7L642.4,663.7L456.5,663.7L456.5,953L643.8,953L643.8,883.4L528.6,883.4L528.6,834.7ZM930.6,663.7L894.8,829.3L859.8,663.7L798,663.7L764.7,831L730,663.7L656.3,663.7L723.2,953L790.4,953L823.3,787.2L857.2,953L923,953L990.2,663.7L930.6,663.7ZM1174.6,794.4C1155.4,776.7 1133.4,772 1108.7,765C1079.5,756.8 1063.4,755.9 1063.4,738.9C1064.6,726.3 1075.8,717.1 1088.4,718.3L1088.6,718.3C1107.2,716.8 1124.2,729.1 1128.5,747.3L1191.6,726.3C1179.9,682.3 1139.1,652.4 1093.6,654.4C1027.7,654.4 987.4,694.9 987.4,749.4C987.4,796.5 1014.8,819.7 1069.7,836.1C1102.5,846 1119.9,845.2 1119.9,866.3C1119.9,877.4 1109.6,886.1 1092.5,886.1C1069.9,888.7 1049.3,873.2 1045.4,850.8L976.2,866C988,920.9 1028.9,953.5 1091.6,953.5C1122.6,954.3 1152.5,942 1173.9,919.6C1189.7,902.2 1198.4,879.5 1198.2,855.9C1199.5,832.9 1190.8,810.5 1174.5,794.3L1174.6,794.3L1174.6,794.4ZM366.7,808.9L280.5,665L196.9,665L196.9,953.2L270.3,953.2L270.3,784.8L368.7,952.8L438.3,952.8L438.3,664.6L366.9,664.6L366.7,808.9Z" style="fill:white;fill-rule:nonzero;"/>
        <path id="channel" d="M118.7,1114.7C126.6,1113.3 134.4,1117.8 137.2,1125.3L178.4,1125.3C175.8,1105.8 153.7,1094.2 119.3,1094.2C79.9,1094.7 54.9,1111.6 54.9,1139.1C54.9,1164.1 79.5,1180.3 116.8,1180.3C151.2,1180.3 173.7,1168.4 177.9,1148.1L137.3,1148.1C135,1155.9 128.5,1159.8 118,1159.8C104.3,1159.8 96.9,1152.5 96.9,1138C96.9,1123.5 104.6,1114.7 118.7,1114.7ZM519.4,1161.9L519.4,1131.6C521,1122.2 517.9,1112.6 511.2,1105.9C497.4,1097.6 481.3,1093.9 465.2,1095.5C429.7,1095.5 410.3,1104.1 406.3,1122.9L444,1122.9C445.6,1117 452.5,1113.8 464.3,1113.8C476.1,1113.8 480.5,1116.3 480.5,1120.9L480.5,1122.8C480.5,1129 465,1127.7 436,1132.1C413.9,1135.4 402.8,1143.6 402.8,1156.9C402.8,1170.2 417.3,1180 441.9,1180C455.9,1180.4 469.8,1176.6 481.7,1169.2C482.1,1172 482.8,1174.8 483.8,1177.4L525,1177.4L525,1174.4C521.4,1173 519.5,1168.8 519.5,1161.6L519.4,1161.9ZM480.3,1149C480.3,1157.5 470.4,1162.7 456.6,1162.7C447.4,1162.7 441.5,1158.7 441.5,1153.2C441.5,1147.7 445.8,1145.9 455.2,1144.3C463.7,1143.5 472.1,1142 480.3,1139.8L480.3,1149ZM665,1095.6C651.1,1094.4 637.4,1099.1 627.1,1108.5L627.1,1097.8L587.3,1097.8L587.3,1177.8L628.5,1177.8L628.5,1134.8C628.5,1121.1 634.4,1115.5 649.2,1115.5C664,1115.5 666.4,1122.6 666.4,1137.3L666.4,1177.5L707.6,1177.5L707.6,1125.2C707.1,1105 695.8,1095.6 665.5,1095.6L665,1095.6ZM309,1096.7C295.1,1095.7 281.3,1100.2 270.6,1109.2L270.6,1070.4L229.4,1070.4L229.4,1178.8L270.6,1178.8L270.6,1136.1C270.6,1122.4 276.5,1116.8 291.3,1116.8C306.1,1116.8 308.5,1123.9 308.5,1138.6L308.5,1178.8L349.7,1178.8L349.7,1123.9C349.7,1106.1 335.6,1096.7 309.4,1096.7L309,1096.7ZM857.9,1095.6C844,1094.4 830.3,1099.1 820,1108.5L820,1097.8L780.9,1097.8L780.9,1177.8L822.1,1177.8L822.1,1134.8C822.1,1121.1 828,1115.5 842.8,1115.5C857.6,1115.5 860,1122.6 860,1137.3L860,1177.5L901.2,1177.5L901.2,1125.2C900.7,1105 889.3,1095.6 858.9,1095.6L857.9,1095.6ZM1017.9,1094.8C979.8,1094.8 955.1,1111.1 955.1,1137.9C955.1,1164.7 980.3,1180.2 1018.9,1180.2C1050.9,1180.2 1073.8,1170 1080.7,1152.8L1041.3,1152.8C1038.4,1158.6 1031.4,1161.6 1020.3,1161.6C1005.8,1161.6 997.9,1155.6 997.9,1144.3L1082.4,1144.3C1082.5,1142.7 1082.5,1141.2 1082.4,1139.6C1082.7,1111.6 1058.2,1094.9 1018.9,1094.9L1017.9,1094.8ZM995.8,1128.9C997.4,1118.2 1006,1112.4 1019.1,1112.4C1032.2,1112.4 1042.2,1118.4 1042.4,1128.9L995.8,1128.9ZM1138.9,1070.3L1138.9,1178.7L1180.1,1178.7L1180.1,1070.3L1138.9,1070.3Z" style="fill:white;fill-rule:nonzero;"/>
    </g>
</svg>
